X:16900
T:The Killarney Boys of Pleasure
R:Reel
S:Josie Nugent,Clare (fiddle)
D:Private tape
N:As played
Z:Bernie Stocks
M:4/4
K:D
D {GED}E2D {GED}E2 FA | BdAF DEFA | B {dBA}B2d efed | BdAF DEFD |
E2(3.E.E.D {GED}E2 FA | {dBA}B2 AF DEFA | B {dBA}B2d efec
|1 dBAd BE{G}ED :|2 dBAd BEFA || Beed Beed | BdAF DEFA |
df{a}fe f {afe}f2e | dBAF DEFA | A {dBA}B2 A {dBA}B2 ed | BdAF DEFA
|1 dzfd f {afe}f2e | dBAd BEFA :|2 f {afe}f2e {e}d2ed | {e}d2Ad BEE2 ||
